src/svg/uf2d2-window-restore.svg

<!-- Generated by IcoMoon.io -->
<svg version="1.1" xmlns="http://www.w3.org/2000/svg" width="37" height="32" viewBox="0 0 37 32">
<path d="M4.571 27.429h13.714v-9.143h-13.714v9.143zM22.857 18.286h9.143v-13.714h-13.714v4.571h1.714c1.571 0 2.857 1.286 2.857 2.857v6.286zM36.571 2.857v17.143c0 1.571-1.286 2.857-2.857 2.857h-10.857v6.286c0 1.571-1.286 2.857-2.857 2.857h-17.143c-1.571 0-2.857-1.286-2.857-2.857v-17.143c0-1.571 1.286-2.857 2.857-2.857h10.857v-6.286c0-1.571 1.286-2.857 2.857-2.857h17.143c1.571 0 2.857 1.286 2.857 2.857z"></path>
</svg>

<svg xmlns="http://www.w3.org/2000/svg" width="37" height="32"><path d="M4.571 27.429h13.714v-9.143H4.571v9.143zm18.286-9.143H32V4.572H18.286v4.571H20A2.866 2.866 0 0 1 22.857 12v6.286zM36.571 2.857V20a2.866 2.866 0 0 1-2.857 2.857H22.857v6.286A2.866 2.866 0 0 1 20 32H2.857A2.866 2.866 0 0 1 0 29.143V12a2.866 2.866 0 0 1 2.857-2.857h10.857V2.857A2.866 2.866 0 0 1 16.571 0h17.143a2.866 2.866 0 0 1 2.857 2.857z"/></svg>
